!!!OTL: Kaeuzlein
!!!ARE: Europa, Mitteleuropa, Deutschland
!!!SCT: A0172
!!!YEM: Copyright 1995, estate of Helmut Schaffrath.
**kern
*ICvox
*Ivox
!! Mixed meters:  4/2; 6/2
*M4/2
*k[b-]
*F:
{2f
=1
2f
2f
2a
2a
=2
*M6/2
1f
2g
1a}
{2b-
=3
*M4/2
1cc
2b-
[2a
=4
2a]
4g
4f
2g
2g
=5
1f
2r}
{2f
=6
*M6/2
1f
2a
1g
2f
=7
2.c
4d
2e
1f}
{2f
=8
*M4/2
2a
2cc
2b-
4a
4g
=9
2f
2a
2g
2g
=10
1.f}
==
!!!AGN: Romanze, Ballade, Lied
!! Forster III 1549 No. 4
!!!ONB: ESAC (Essen Associative Code) Database: ALTDEU
!!!AMT: irregular
!!!AIN: vox
!!!EED: Helmut Schaffrath
!!!EEV: 1.0
*-
